swiss/communes/0620.svg

<?xml version="1.0" encoding="UTF-8" standalone="no"?>
<svg
   xmlns:dc="http://purl.org/dc/elements/1.1/"
   xmlns:cc="http://creativecommons.org/ns#"
   xmlns:rdf="http://www.w3.org/1999/02/22-rdf-syntax-ns#"
   xmlns:svg="http://www.w3.org/2000/svg"
   xmlns="http://www.w3.org/2000/svg"
   xmlns:xlink="http://www.w3.org/1999/xlink"
   xmlns:sodipodi="http://sodipodi.sourceforge.net/DTD/sodipodi-0.dtd"
   xmlns:inkscape="http://www.inkscape.org/namespaces/inkscape"
   height="763"
   width="603"
   version="1.0"
   id="svg20"
   sodipodi:version="0.32"
   inkscape:version="0.46"
   sodipodi:docname="Oberthal-coat of arms.svg"
   sodipodi:docbase="C:\Users\Camilo\Documents\Escudos de Suiza"
   inkscape:output_extension="org.inkscape.output.svg.inkscape">
  <metadata
     id="metadata31">
    <rdf:RDF>
      <cc:Work
         rdf:about="">
        <dc:format>image/svg+xml</dc:format>
        <dc:type
           rdf:resource="http://purl.org/dc/dcmitype/StillImage" />
        <dc:date>03-AUG-2009</dc:date>
        <dc:creator>
          <cc:Agent>
            <dc:title>Juan G (Aliman5040)</dc:title>
          </cc:Agent>
        </dc:creator>
        <cc:license
           rdf:resource="http://creativecommons.org/licenses/GPL/2.0/" />
        <dc:coverage />
        <dc:description />
        <dc:subject>
          <rdf:Bag />
        </dc:subject>
        <dc:language />
        <dc:title>blason commune d'Oberthal</dc:title>
      </cc:Work>
      <cc:License
         rdf:about="http://creativecommons.org/licenses/GPL/2.0/">
        <cc:permits
           rdf:resource="http://web.resource.org/cc/Reproduction" />
        <cc:permits
           rdf:resource="http://web.resource.org/cc/Distribution" />
        <cc:requires
           rdf:resource="http://web.resource.org/cc/Notice" />
        <cc:permits
           rdf:resource="http://web.resource.org/cc/DerivativeWorks" />
        <cc:requires
           rdf:resource="http://web.resource.org/cc/ShareAlike" />
        <cc:requires
           rdf:resource="http://web.resource.org/cc/SourceCode" />
      </cc:License>
    </rdf:RDF>
  </metadata>
  <defs
     id="defs29">
    <inkscape:perspective
       sodipodi:type="inkscape:persp3d"
       inkscape:vp_x="0 : 381.5 : 1"
       inkscape:vp_y="0 : 1000 : 0"
       inkscape:vp_z="603 : 381.5 : 1"
       inkscape:persp3d-origin="301.5 : 254.33333 : 1"
       id="perspective5149" />
    <linearGradient
       id="linearGradient2893">
      <stop
         style="stop-color:#ffffff;stop-opacity:0.3137255;"
         offset="0"
         id="stop2895" />
      <stop
         id="stop2897"
         offset="0.19"
         style="stop-color:#ffffff;stop-opacity:0.25098041;" />
      <stop
         style="stop-color:#6b6b6b;stop-opacity:0.1254902;"
         offset="0.60000002"
         id="stop2901" />
      <stop
         style="stop-color:#000000;stop-opacity:0.1254902;"
         offset="1"
         id="stop2899" />
    </linearGradient>
    <radialGradient
       inkscape:collect="always"
       xlink:href="#linearGradient2893"
       id="radialGradient3236"
       gradientUnits="userSpaceOnUse"
       gradientTransform="matrix(1.215027,1.531577e-24,1.464684e-23,1.266667,-839.1924,-490.4894)"
       cx="858.04236"
       cy="579.93323"
       fx="858.04236"
       fy="579.93323"
       r="300" />
    <inkscape:perspective
       id="perspective5197"
       inkscape:persp3d-origin="372.04724 : 350.78739 : 1"
       inkscape:vp_z="744.09448 : 526.18109 : 1"
       inkscape:vp_y="0 : 1000 : 0"
       inkscape:vp_x="0 : 526.18109 : 1"
       sodipodi:type="inkscape:persp3d" />
    <inkscape:perspective
       id="perspective6580"
       inkscape:persp3d-origin="372.04724 : 350.78739 : 1"
       inkscape:vp_z="744.09448 : 526.18109 : 1"
       inkscape:vp_y="0 : 1000 : 0"
       inkscape:vp_x="0 : 526.18109 : 1"
       sodipodi:type="inkscape:persp3d" />
  </defs>
  <sodipodi:namedview
     inkscape:window-height="720"
     inkscape:window-width="1280"
     inkscape:pageshadow="2"
     inkscape:pageopacity="0.0"
     guidetolerance="10.0"
     gridtolerance="10.0"
     objecttolerance="10.0"
     borderopacity="1.0"
     bordercolor="#666666"
     pagecolor="#ffffff"
     id="base"
     inkscape:zoom="0.38501964"
     inkscape:cx="43.563391"
     inkscape:cy="450.98555"
     inkscape:window-x="-8"
     inkscape:window-y="-8"
     inkscape:current-layer="layer1"
     showgrid="true"
     showguides="true">
    <inkscape:grid
       type="xygrid"
       id="grid5151"
       visible="true"
       enabled="true" />
  </sodipodi:namedview>
  <g
     inkscape:groupmode="layer"
     id="layer1"
     inkscape:label="Fond écu"
     style="display:inline"
     sodipodi:insensitive="true">
    <path
       id="path1899"
       d="M 1.5,1.49998 L 1.5,460.3679 C 1.5,626.6785 135.81456,761.5 301.49999,761.5 C 467.18543,761.5 601.5,626.6785 601.5,460.3679 L 601.5,1.49998 L 1.5,1.49998 z"
       style="fill:#ffffff;fill-opacity:0" />
    <path
       style="opacity:1;fill:#ffffff"
       id="path1968"
       d="M 1.5,1.50001 L 1.5,460.36801 C 1.5,626.67899 135.814,761.49999 301.5,761.49999 C 467.187,761.49999 601.5,626.67899 601.5,460.36801 L 601.5,1.50001 L 1.5,1.50001 z" />
    <path
       style="fill:#5ab532;fill-opacity:1;fill-rule:evenodd;stroke:#000000;stroke-width:3;stroke-miterlimit:4;stroke-dasharray:none;stroke-opacity:1;display:inline"
       d="M 582,568 C 564.13199,514.39603 536.84931,496.32026 502.02052,496.19805 C 439.19784,495.97769 422.50719,533.53165 401.64388,571.0856 C 355.7446,704.61078 322.36331,700.43812 301.5,758.85539 C 322.36331,700.43812 355.7446,704.61078 401.64388,571.0856 C 414.16187,483.4597 335.90564,460.86111 303.21601,460.07243 C 266.32066,459.18232 197.91388,474.97222 201.35612,571.0856 C 243.08273,704.61078 280.63669,700.43812 301.5,758.85539 C 280.63669,700.43812 243.08273,704.61078 201.35612,571.0856 C 176.32014,470.94172 54.3813,458.51079 21,567 C 105,803 465,848 582,568 z"
       id="path7197"
       sodipodi:nodetypes="cscccsccccc" />
  </g>
  <g
     inkscape:groupmode="layer"
     id="layer2"
     inkscape:label="Meubles"
     style="display:inline"
     sodipodi:insensitive="true">
    <g
       id="g7848"
       transform="matrix(0.9833334,0,0,0.9833334,-604.6417,-247.30839)">
      <path
         sodipodi:nodetypes="ccccccccccc"
         id="path7179"
         d="M 750.63907,371.5 L 776.46689,319.84437 L 802.2947,371.5 L 849.97682,383.42053 L 818.18874,419.18212 L 830.10927,482.75828 L 776.46689,446.99669 L 722.8245,482.75828 L 738.71854,419.18212 L 695.00993,383.42053 L 750.63907,371.5 z"
         style="fill:#e00909;fill-opacity:1;fill-rule:evenodd;stroke:#000000;stroke-width:3.97351003;stroke-miterlimit:4;stroke-dasharray:none;stroke-opacity:1" />
      <path
         style="fill:#e00909;fill-opacity:1;fill-rule:evenodd;stroke:#000000;stroke-width:3.97351003;stroke-miterlimit:4;stroke-dasharray:none;stroke-opacity:1"
         d="M 893.68543,371.5 L 921.5,319.84437 L 945.34106,371.5 L 993.02318,383.42053 L 961.2351,419.18212 L 973.15563,482.75828 L 921.5,446.99669 L 865.87086,482.75828 L 881.7649,419.18212 L 849.97682,383.42053 L 893.68543,371.5 z"
         id="path7181"
         sodipodi:nodetypes="ccccccccccc" />
      <path
         sodipodi:nodetypes="ccccccccccc"
         id="path7183"
         d="M 1092.3609,371.5 L 1066.5331,319.84437 L 1040.7053,371.5 L 993.02318,383.42053 L 1024.8113,419.18212 L 1008.9172,482.75828 L 1064.5464,450.9702 L 1116.202,482.75828 L 1100.3079,419.18212 L 1147.9901,387.39404 L 1092.3609,371.5 z"
         style="fill:#e00909;fill-opacity:1;fill-rule:evenodd;stroke:#000000;stroke-width:3.97351003;stroke-miterlimit:4;stroke-dasharray:none;stroke-opacity:1" />
      <path
         style="fill:#e00909;fill-opacity:1;fill-rule:evenodd;stroke:#000000;stroke-width:3.97351003;stroke-miterlimit:4;stroke-dasharray:none;stroke-opacity:1"
         d="M 679.11589,558.25497 L 704.94371,506.59934 L 730.77152,558.25497 L 778.45364,570.1755 L 746.66556,605.93709 L 758.58609,669.51325 L 704.94371,633.75166 L 651.30132,669.51325 L 667.19536,605.93709 L 623.48675,570.1755 L 679.11589,558.25497 z"
         id="path7185"
         sodipodi:nodetypes="ccccccccccc" />
      <path
         sodipodi:nodetypes="ccccccccccc"
         id="path7187"
         d="M 822.16225,558.25497 L 849.97682,506.59934 L 873.81788,558.25497 L 921.5,570.1755 L 889.71192,605.93709 L 901.63245,669.51325 L 849.97682,633.75166 L 794.34768,669.51325 L 810.24172,605.93709 L 778.45364,570.1755 L 822.16225,558.25497 z"
         style="fill:#e00909;fill-opacity:1;fill-rule:evenodd;stroke:#000000;stroke-width:3.97351003;stroke-miterlimit:4;stroke-dasharray:none;stroke-opacity:1" />
      <path
         sodipodi:nodetypes="ccccccccccc"
         id="path7189"
         d="M 679.11589,558.25497 L 704.94371,506.59934 L 730.77152,558.25497 L 778.45364,570.1755 L 746.66556,605.93709 L 758.58609,669.51325 L 704.94371,633.75166 L 651.30132,669.51325 L 667.19536,605.93709 L 623.48675,570.1755 L 679.11589,558.25497 z"
         style="fill:#e00909;fill-opacity:1;fill-rule:evenodd;stroke:#000000;stroke-width:3.97351003;stroke-miterlimit:4;stroke-dasharray:none;stroke-opacity:1" />
      <path
         style="fill:#e00909;fill-opacity:1;fill-rule:evenodd;stroke:#000000;stroke-width:3.97351003;stroke-miterlimit:4;stroke-dasharray:none;stroke-opacity:1"
         d="M 822.16225,558.25497 L 849.97682,506.59934 L 873.81788,558.25497 L 921.5,570.1755 L 889.71192,605.93709 L 901.63245,669.51325 L 849.97682,633.75166 L 794.34768,669.51325 L 810.24172,605.93709 L 778.45364,570.1755 L 822.16225,558.25497 z"
         id="path7191"
         sodipodi:nodetypes="ccccccccccc" />
      <path
         sodipodi:nodetypes="ccccccccccc"
         id="path7193"
         d="M 965.20861,558.25497 L 993.02318,506.59934 L 1016.8642,558.25497 L 1064.5464,570.1755 L 1032.7583,605.93709 L 1044.6788,669.51325 L 993.02318,633.75166 L 937.39404,669.51325 L 953.28808,605.93709 L 921.5,570.1755 L 965.20861,558.25497 z"
         style="fill:#e00909;fill-opacity:1;fill-rule:evenodd;stroke:#000000;stroke-width:3.97351003;stroke-miterlimit:4;stroke-dasharray:none;stroke-opacity:1" />
      <path
         style="fill:#e00909;fill-opacity:1;fill-rule:evenodd;stroke:#000000;stroke-width:3.97351003;stroke-miterlimit:4;stroke-dasharray:none;stroke-opacity:1"
         d="M 1163.8841,558.25497 L 1138.0563,506.59934 L 1112.2285,558.25497 L 1064.5464,570.1755 L 1096.3344,605.93709 L 1080.4404,669.51325 L 1136.0695,637.72517 L 1187.7252,669.51325 L 1171.8311,605.93709 L 1219.5132,574.14901 L 1163.8841,558.25497 z"
         id="path7195"
         sodipodi:nodetypes="ccccccccccc" />
    </g>
  </g>
  <g
     inkscape:groupmode="layer"
     id="layer3"
     inkscape:label="Reflet final"
     style="display:inline"
     sodipodi:insensitive="true">
    <path
       style="fill:url(#radialGradient3236);fill-opacity:1"
       d="M 1.5,1.5 L 1.5,460.3679 C 1.5,626.67854 135.81454,761.5 301.49993,761.5 C 467.1854,761.5 601.5,626.67854 601.5,460.3679 L 601.5,1.5 L 1.5,1.5 z "
       id="path2346" />
  </g>
  <g
     inkscape:groupmode="layer"
     id="layer4"
     inkscape:label="Contour final"
     style="display:inline"
     sodipodi:insensitive="true">
    <path
       style="fill:none;fill-opacity:1;stroke:#000000;stroke-width:3;stroke-miterlimit:4;stroke-dasharray:none;stroke-opacity:1"
       d="M 1.5,1.5 L 1.5,460.36794 C 1.5,626.67854 135.81454,761.5 301.49993,761.5 C 467.1854,761.5 601.5,626.67854 601.5,460.36794 L 601.5,1.5 L 1.5,1.5 z"
       id="path3239" />
  </g>
</svg>

<svg xmlns="http://www.w3.org/2000/svg" xmlns:xlink="http://www.w3.org/1999/xlink" height="763" width="603" version="1.0"><defs><radialGradient xlink:href="#a" id="b" gradientUnits="userSpaceOnUse" gradientTransform="matrix(1.21503 0 0 1.26667 -839.192 -490.49)" cx="858.042" cy="579.933" fx="858.042" fy="579.933" r="300"/><linearGradient id="a"><stop style="stop-color:#fff;stop-opacity:.3137255" offset="0"/><stop offset=".19" style="stop-color:#fff;stop-opacity:.25098041"/><stop style="stop-color:#6b6b6b;stop-opacity:.1254902" offset=".6"/><stop style="stop-color:#000;stop-opacity:.1254902" offset="1"/></linearGradient></defs><g style="display:inline"><path d="M1.5 1.5v458.868c0 166.31 134.315 301.132 300 301.132s300-134.822 300-301.132V1.5H1.5z" style="fill:#fff;fill-opacity:0"/><path style="opacity:1;fill:#fff" d="M1.5 1.5v458.868c0 166.311 134.314 301.132 300 301.132 165.687 0 300-134.821 300-301.132V1.5H1.5z"/><path style="fill:#5ab532;fill-opacity:1;fill-rule:evenodd;stroke:#000;stroke-width:3;stroke-miterlimit:4;stroke-dasharray:none;stroke-opacity:1;display:inline" d="M582 568c-17.868-53.604-45.15-71.68-79.98-71.802-62.822-.22-79.513 37.334-100.376 74.888-45.9 133.525-79.28 129.352-100.144 187.77 20.863-58.418 54.245-54.245 100.144-187.77 12.518-87.626-65.738-110.225-98.428-111.014-36.895-.89-105.302 14.9-101.86 111.014 41.727 133.525 79.28 129.352 100.144 187.77-20.863-58.418-58.417-54.245-100.144-187.77C176.32 470.942 54.381 458.51 21 567c84 236 444 281 561 1z"/></g><g style="display:inline"><path d="m750.64 371.5 25.827-51.656 25.828 51.656 47.682 11.92-31.788 35.762 11.92 63.576-53.642-35.761-53.643 35.761 15.895-63.576-43.71-35.761 55.63-11.921zM893.685 371.5l27.815-51.656 23.841 51.656 47.682 11.92-31.788 35.762 11.92 63.576-51.655-35.761-55.63 35.761 15.895-63.576-31.788-35.761 43.708-11.921z" style="fill:#e00909;fill-opacity:1;fill-rule:evenodd;stroke:#000;stroke-width:3.97351003;stroke-miterlimit:4;stroke-dasharray:none;stroke-opacity:1" transform="matrix(.98333 0 0 .98333 -604.642 -247.308)"/><path d="m1092.36 371.5-25.827-51.656-25.828 51.656-47.682 11.92 31.788 35.762-15.894 63.576 55.63-31.788 51.655 31.788-15.894-63.576 47.682-31.788-55.63-15.894zM679.116 558.255l25.828-51.656 25.828 51.656 47.682 11.92-31.788 35.762 11.92 63.576-53.642-35.761-53.643 35.761 15.894-63.576-43.708-35.761 55.629-11.921zM822.162 558.255l27.815-51.656 23.84 51.656 47.683 11.92-31.788 35.762 11.92 63.576-51.655-35.761-55.63 35.761 15.895-63.576-31.788-35.761 43.708-11.921z" style="fill:#e00909;fill-opacity:1;fill-rule:evenodd;stroke:#000;stroke-width:3.97351003;stroke-miterlimit:4;stroke-dasharray:none;stroke-opacity:1" transform="matrix(.98333 0 0 .98333 -604.642 -247.308)"/><path d="m679.116 558.255 25.828-51.656 25.828 51.656 47.682 11.92-31.788 35.762 11.92 63.576-53.642-35.761-53.643 35.761 15.894-63.576-43.708-35.761 55.629-11.921zM822.162 558.255l27.815-51.656 23.84 51.656 47.683 11.92-31.788 35.762 11.92 63.576-51.655-35.761-55.63 35.761 15.895-63.576-31.788-35.761 43.708-11.921zM965.209 558.255l27.814-51.656 23.841 51.656 47.682 11.92-31.788 35.762 11.92 63.576-51.655-35.761-55.629 35.761 15.894-63.576-31.788-35.761 43.709-11.921zM1163.884 558.255l-25.828-51.656-25.828 51.656-47.682 11.92 31.788 35.762-15.894 63.576 55.63-31.788 51.655 31.788-15.894-63.576 47.682-31.788-55.629-15.894z" style="fill:#e00909;fill-opacity:1;fill-rule:evenodd;stroke:#000;stroke-width:3.97351003;stroke-miterlimit:4;stroke-dasharray:none;stroke-opacity:1" transform="matrix(.98333 0 0 .98333 -604.642 -247.308)"/></g><g style="display:inline"><path style="fill:url(#b);fill-opacity:1" d="M1.5 1.5v458.868c0 166.31 134.315 301.132 300 301.132s300-134.821 300-301.132V1.5H1.5z"/></g><g style="display:inline"><path style="fill:none;fill-opacity:1;stroke:#000;stroke-width:3;stroke-miterlimit:4;stroke-dasharray:none;stroke-opacity:1" d="M1.5 1.5v458.868c0 166.31 134.315 301.132 300 301.132s300-134.821 300-301.132V1.5H1.5z"/></g></svg>
